Adwaita++/mimetypes/16/image-eps.svg

<svg height="16" width="16" xmlns="http://www.w3.org/2000/svg">
  <path clip-rule="evenodd" d="m9.1575143.6647344-5.7108207 6.763351c1.4873726.2384882 3.9991256 2.1190296 3.6202658 4.6165036.7717492-1.852195-.6455282-4.1114076-2.0066154-5.0234831l4.981319-5.949392c-.2667965-.1965354-.4772255-.2948031-.8841487-.4069795zm-1.9211112.4715339c-.2221228.0009449-.3887735.034016-.380005.034016l-1.8240793 2.090683c-1.0243238.055937-2.0206488.1262362-2.9888428.224504-.6875604.0702992-1.2348095.6173858-1.3330319 1.3470614-.140296 1.2768755-.2104441 2.6239369-.2104441 4.0131023 0 1.389128.07011 2.736189.2104441 4.027086.09823.814035.6454715 1.220977 1.3330319 1.347062 1.9083288.308787 4.672679.01512 4.672679-2.609878 0-2.455596-4.0271924-3.5080055-5.4023093-2.8344559l6.3563829-7.5912186c-.1473259-.037795-.300548-.048-.4338255-.047622zm4.1942029 2.1523652s-3.5778488 7.9421095-3.9286457 8.7559555c-.5332082 1.206765-1.2628686 2.090759-2.3152554 2.399471.9261014.04195 1.8521423.05594 2.806303.05594 2.0905511 0 4.0833041-.09827 5.9495361-.280819.687364-.0703 1.248839-.631408 1.333032-1.347024.154545-1.290935.224429-2.637958.224429-4.0271238 0-1.3891653-.06988-2.7361889-.224429-4.0131023-.084208-.7296785-.645471-1.2768785-1.333032-1.3470644-.813845-.0842834-1.655799-.1545826-2.511938-.1965354z" fill="#474747" fill-rule="evenodd"/>
</svg>

<svg xmlns="http://www.w3.org/2000/svg" width="16" height="16" version="1.1">
 <path d="M 9.1575143,0.6647344 3.4466936,7.4280854 C 4.9340662,7.6665736 7.4458192,9.547115 7.0669594,12.044589 7.8387086,10.192394 6.4214312,7.9331814 5.060344,7.0211059 l 4.981319,-5.949392 C 9.7748665,0.8751785 9.5644375,0.7769108 9.1575143,0.6647344 Z M 7.2364031,1.1362683 c -0.2221228,9.449e-4 -0.3887735,0.034016 -0.380005,0.034016 L 5.0323188,3.2609673 C 4.007995,3.3169043 3.01167,3.3872035 2.043476,3.4854713 1.3559156,3.5557705 0.8086665,4.1028571 0.7104441,4.8325327 0.5701481,6.1094082 0.5,7.4564696 0.5,8.845635 c 0,1.389128 0.07011,2.736189 0.2104441,4.027086 0.09823,0.814035 0.6454715,1.220977 1.3330319,1.347062 1.9083288,0.308787 4.672679,0.01512 4.672679,-2.609878 0,-2.455596 -4.0271924,-3.5080055 -5.4023093,-2.8344559 L 7.6702286,1.1842305 c -0.1473259,-0.037795 -0.300548,-0.048 -0.4338255,-0.047622 z m 4.1942029,2.1523652 c 0,0 -3.5778488,7.9421095 -3.9286457,8.7559555 C 6.9687521,13.251354 6.2390917,14.135348 5.1867049,14.44406 6.1128063,14.48601 7.0388472,14.5 7.9930079,14.5 c 2.0905511,0 4.0833041,-0.09827 5.9495361,-0.280819 0.687364,-0.0703 1.248839,-0.631408 1.333032,-1.347024 0.154545,-1.290935 0.224429,-2.637958 0.224429,-4.0271238 0,-1.3891653 -0.06988,-2.7361889 -0.224429,-4.0131023 C 15.191368,4.1022524 14.630105,3.5550524 13.942544,3.4848665 13.128699,3.4005831 12.286745,3.3302839 11.430606,3.2883311 Z" style="clip-rule:evenodd;fill:#474747;fill-rule:evenodd"/>
</svg>
